svg/emoji_u1f500.svg

<svg width="128" height="128" viewBox="0 0 128 128" fill="none" xmlns="http://www.w3.org/2000/svg">
<path d="M116 4H12C7.58 4 4 7.58 4 12V116C4 120.42 7.58 124 12 124H116C120.42 124 124 120.42 124 116V12C124 7.58 120.42 4 116 4Z" fill="#F77E00" style="fill:#F77E00;fill:color(display-p3 0.9686 0.4941 0.0000);fill-opacity:1;"/>
<path d="M109.7 4H11.5C7.37002 4.03 4.03002 7.37 4.00002 11.5V109.4C3.99002 113.54 7.34002 116.89 11.48 116.9C11.49 116.9 11.49 116.9 11.5 116.9H109.6C113.74 116.91 117.09 113.56 117.1 109.42C117.1 109.41 117.1 109.41 117.1 109.4V11.5C117.19 7.45 113.97 4.09 109.92 4C109.85 4 109.77 4 109.7 4Z" fill="#FF9800" style="fill:#FF9800;fill:color(display-p3 1.0000 0.5961 0.0000);fill-opacity:1;"/>
<path d="M116 4H12C7.58 4 4 7.58 4 12V116C4 120.42 7.58 124 12 124H116C120.42 124 124 120.42 124 116V12C124 7.58 120.42 4 116 4Z" fill="#427687" style="fill:#427687;fill:color(display-p3 0.2588 0.4627 0.5294);fill-opacity:1;"/>
<path d="M109.7 4H11.5C7.37002 4.03 4.03002 7.37 4.00002 11.5V109.4C3.99002 113.54 7.34002 116.89 11.48 116.9C11.49 116.9 11.49 116.9 11.5 116.9H109.6C113.74 116.91 117.09 113.56 117.1 109.42C117.1 109.41 117.1 109.41 117.1 109.4V11.5C117.19 7.45 113.97 4.09 109.92 4C109.85 4 109.77 4 109.7 4Z" fill="#8CAFBF" style="fill:#8CAFBF;fill:color(display-p3 0.5490 0.6863 0.7490);fill-opacity:1;"/>
<path opacity="0.75" d="M39.6996 12.8999C39.6996 10.5999 38.0996 9.89988 28.8996 10.1999C21.1996 10.4999 17.3996 11.3999 15.0996 14.1999C12.7996 16.9999 12.1996 22.6999 12.0996 29.4999C12.0996 34.2999 12.0996 38.7999 14.5996 38.7999C17.9996 38.7999 17.9996 30.8999 20.7996 26.4999C26.1996 17.7999 39.6996 15.8999 39.6996 12.8999Z" fill="#A0C8D6" style="fill:#A0C8D6;fill:color(display-p3 0.6275 0.7843 0.8392);fill-opacity:1;"/>
<path d="M110.6 32.9L94.6002 16.9C92.8602 15.49 90.3102 15.76 88.9002 17.5C88.3302 18.21 88.0102 19.09 88.0002 20V26.6C88.0202 27.57 87.3502 28.41 86.4002 28.6C74.6902 30.8 64.3102 37.52 57.5002 47.3C55.1402 50.78 52.9702 54.38 51.0002 58.1C43.7002 71.1 35.5002 85.8 19.5002 87.8C17.4902 88.05 15.9802 89.7701 16.0002 91.8V99.9C16.0202 102.14 17.8502 103.93 20.0802 103.92C20.1902 103.92 20.2902 103.91 20.4002 103.9C45.0002 101.5 57.0002 80.3 65.0002 66C66.7102 62.81 68.5802 59.7 70.6002 56.7C74.1502 51.4 79.3602 47.43 85.4002 45.4C86.4502 45.07 87.5802 45.65 87.9102 46.71C87.9702 46.9 88.0002 47.1 88.0002 47.3V52.1C88.0302 54.34 89.8602 56.13 92.1002 56.1C93.0102 56.09 93.9002 55.77 94.6002 55.2L110.6 39.2C112.34 37.67 112.51 35.03 110.99 33.29C110.87 33.15 110.74 33.02 110.6 32.9Z" fill="#FAFAFA" style="fill:#FAFAFA;fill:color(display-p3 0.9804 0.9804 0.9804);fill-opacity:1;"/>
<path d="M94.5998 72.9001C92.8598 71.4901 90.3098 71.7601 88.8998 73.5001C88.3298 74.2101 88.0098 75.0901 87.9998 76.0001V80.8001C87.9998 81.9001 87.0998 82.8001 85.9898 82.7901C85.7898 82.7901 85.5898 82.7601 85.3998 82.7001C79.3798 80.5801 74.1698 76.6301 70.4998 71.4001C70.0998 70.8001 69.6998 70.2001 69.1998 69.5001C68.9098 69.0301 68.2898 68.8901 67.8198 69.1801C67.6898 69.2601 67.5798 69.3701 67.4998 69.5001C65.2998 73.5001 62.6998 77.9001 59.6998 82.3001C59.4998 82.6701 59.4998 83.1301 59.6998 83.5001C66.4498 91.7101 75.8598 97.3001 86.2998 99.3001C87.2598 99.5001 87.9598 100.32 87.9998 101.3V108C88.0298 110.24 89.8598 112.03 92.0998 112C93.0098 111.99 93.8998 111.67 94.5998 111.1L110.6 95.1001C112.31 93.6301 112.51 91.0601 111.05 89.3501C110.91 89.1901 110.76 89.0401 110.6 88.9001L94.5998 72.9001Z" fill="#FAFAFA" style="fill:#FAFAFA;fill:color(display-p3 0.9804 0.9804 0.9804);fill-opacity:1;"/>
<path d="M19.6 40.2C31 41.6 38.5 49.5 44.4 58.7C44.69 59.17 45.31 59.31 45.78 59.02C45.91 58.94 46.02 58.83 46.1 58.7C48 55.4 52.6 47.7 53.9 45.6C54.12 45.25 54.08 44.8 53.8 44.5C46.2 34.6 35.8 25.7 20.3 24.3C18.16 24.07 16.25 25.62 16.02 27.76C16.01 27.9 16 28.05 16 28.2V36.3C16 38.34 17.57 40.04 19.6 40.2Z" fill="#FAFAFA" style="fill:#FAFAFA;fill:color(display-p3 0.9804 0.9804 0.9804);fill-opacity:1;"/>
</svg>

<?xml version="1.0" encoding="utf-8"?>
<!-- Generator: Adobe Illustrator 25.2.3, SVG Export Plug-In . SVG Version: 6.00 Build 0)  -->
<svg version="1.1" id="Layer_2" xmlns="http://www.w3.org/2000/svg" xmlns:xlink="http://www.w3.org/1999/xlink" x="0px" y="0px"
	 viewBox="0 0 128 128" style="enable-background:new 0 0 128 128;" xml:space="preserve">
<g>
	<path style="fill:#F77E00;" d="M116,4H12c-4.42,0-8,3.58-8,8v104c0,4.42,3.58,8,8,8h104c4.42,0,8-3.58,8-8V12
		C124,7.58,120.42,4,116,4z"/>
	<path style="fill:#FF9800;" d="M109.7,4H11.5C7.37,4.03,4.03,7.37,4,11.5v97.9c-0.01,4.14,3.34,7.49,7.48,7.5c0.01,0,0.01,0,0.02,0
		h98.1c4.14,0.01,7.49-3.34,7.5-7.48c0-0.01,0-0.01,0-0.02V11.5c0.09-4.05-3.13-7.41-7.18-7.5C109.85,4,109.77,4,109.7,4z"/>
	<path style="fill:#FAFAFA;" d="M110.6,32.9l-16-16c-1.74-1.41-4.29-1.14-5.7,0.6c-0.57,0.71-0.89,1.59-0.9,2.5v6.6
		c0.02,0.97-0.65,1.81-1.6,2c-11.71,2.2-22.09,8.92-28.9,18.7c-2.36,3.48-4.53,7.08-6.5,10.8c-7.3,13-15.5,27.7-31.5,29.7
		c-2.01,0.25-3.52,1.97-3.5,4v8.1c0.02,2.24,1.85,4.03,4.08,4.02c0.11,0,0.21-0.01,0.32-0.02C45,101.5,57,80.3,65,66
		c1.71-3.19,3.58-6.3,5.6-9.3c3.55-5.3,8.76-9.27,14.8-11.3c1.05-0.33,2.18,0.25,2.51,1.31C87.97,46.9,88,47.1,88,47.3v4.8
		c0.03,2.24,1.86,4.03,4.1,4c0.91-0.01,1.8-0.33,2.5-0.9l16-16c1.74-1.53,1.91-4.17,0.39-5.91C110.87,33.15,110.74,33.02,110.6,32.9
		z"/>
	<path style="fill:#FAFAFA;" d="M94.6,72.9c-1.74-1.41-4.29-1.14-5.7,0.6c-0.57,0.71-0.89,1.59-0.9,2.5v4.8c0,1.1-0.9,2-2.01,1.99
		c-0.2,0-0.4-0.03-0.59-0.09c-6.02-2.12-11.23-6.07-14.9-11.3c-0.4-0.6-0.8-1.2-1.3-1.9c-0.29-0.47-0.91-0.61-1.38-0.32
		c-0.13,0.08-0.24,0.19-0.32,0.32c-2.2,4-4.8,8.4-7.8,12.8c-0.2,0.37-0.2,0.83,0,1.2c6.75,8.21,16.16,13.8,26.6,15.8
		c0.96,0.2,1.66,1.02,1.7,2v6.7c0.03,2.24,1.86,4.03,4.1,4c0.91-0.01,1.8-0.33,2.5-0.9l16-16c1.71-1.47,1.91-4.04,0.45-5.75
		c-0.14-0.16-0.29-0.31-0.45-0.45L94.6,72.9z"/>
	<path style="opacity:0.65;fill:#FFBD52;enable-background:new    ;" d="M39.7,12.9c0-2.3-1.6-3-10.8-2.7c-7.7,0.3-11.5,1.2-13.8,4
		s-2.9,8.5-3,15.3c0,4.8,0,9.3,2.5,9.3c3.4,0,3.4-7.9,6.2-12.3C26.2,17.8,39.7,15.9,39.7,12.9z"/>
	<path style="fill:#FAFAFA;" d="M19.6,40.2c11.4,1.4,18.9,9.3,24.8,18.5c0.29,0.47,0.91,0.61,1.38,0.32
		c0.13-0.08,0.24-0.19,0.32-0.32c1.9-3.3,6.5-11,7.8-13.1c0.22-0.35,0.18-0.8-0.1-1.1c-7.6-9.9-18-18.8-33.5-20.2
		c-2.14-0.23-4.05,1.32-4.28,3.46C16.01,27.9,16,28.05,16,28.2v8.1C16,38.34,17.57,40.04,19.6,40.2z"/>
	<path style="opacity:0.3;fill:#FFBD52;enable-background:new    ;" d="M39.7,12.9c0-2.3-1.6-3-10.8-2.7c-7.7,0.3-11.5,1.2-13.8,4
		s-2.9,8.5-3,15.3c0,4.8,0,9.3,2.5,9.3c3.4,0,3.4-7.9,6.2-12.3C26.2,17.8,39.7,15.9,39.7,12.9z"/>
</g>
</svg>
